build/img/10.svg

<svg width="112" height="84" viewBox="0 0 112 84" fill="none" xmlns="http://www.w3.org/2000/svg">
<path d="M15.7087 80.0002V81.0002H16.7087H31.3037H32.3037V80.0002V4.40019V3.40019H31.3037H16.7087H16.4317L16.1942 3.5427L2.0192 12.0477L1.53369 12.339V12.9052V28.6552V30.4439L3.05744 29.5071L15.7087 21.7289V80.0002ZM66.2119 78.9308C70.5837 81.3718 75.6569 82.5752 81.3994 82.5752C87.1418 82.5752 92.215 81.3718 96.5869 78.9308C100.949 76.4955 104.355 73.0895 106.79 68.7277C109.231 64.3558 110.434 59.2826 110.434 53.5402V30.8602C110.434 25.1178 109.231 20.0446 106.79 15.6727C104.355 11.3109 100.949 7.9049 96.5869 5.46957C92.215 3.02862 87.1418 1.8252 81.3994 1.8252C75.6569 1.8252 70.5837 3.02862 66.2119 5.46956C61.8501 7.9049 58.4441 11.3109 56.0087 15.6727C53.5678 20.0446 52.3644 25.1178 52.3644 30.8602V53.5402C52.3644 59.2826 53.5678 64.3558 56.0087 68.7277C58.4441 73.0895 61.8501 76.4955 66.2119 78.9308ZM87.7186 65.3825C85.8529 66.4762 83.7546 67.0302 81.3994 67.0302C79.0441 67.0302 76.9458 66.4762 75.0801 65.3825C73.1976 64.279 71.7105 62.7919 70.6071 60.9095C69.5133 59.0437 68.9594 56.9455 68.9594 54.5902V29.7052C68.9594 27.3499 69.5133 25.2516 70.6071 23.3859C71.7105 21.5035 73.1976 20.0164 75.0801 18.9129C76.9458 17.8192 79.0441 17.2652 81.3994 17.2652C83.7546 17.2652 85.8529 17.8192 87.7186 18.9129C89.6011 20.0164 91.0882 21.5035 92.1917 23.3859C93.2854 25.2516 93.8394 27.3499 93.8394 29.7052V54.5902C93.8394 56.9455 93.2854 59.0437 92.1917 60.9095C91.0882 62.7919 89.6011 64.279 87.7186 65.3825Z" stroke="#FFCC24" stroke-width="2"/>
</svg>

<?xml version="1.0" encoding="utf-8"?>
<!-- Generator: Adobe Illustrator 26.3.1, SVG Export Plug-In . SVG Version: 6.00 Build 0)  -->
<svg version="1.1" id="Слой_1" xmlns="http://www.w3.org/2000/svg" xmlns:xlink="http://www.w3.org/1999/xlink" x="0px" y="0px"
	 viewBox="0 0 112 84" style="enable-background:new 0 0 112 84;" xml:space="preserve">
<style type="text/css">
	.st0{fill:#FFFFFF;stroke:#FFCC24;stroke-width:2;}
</style>
<path class="st0" d="M15.7,80v1h1h14.6h1v-1V4.4v-1h-1H16.7h-0.3l-0.2,0.1L2,12l-0.5,0.3v0.6v15.7v1.8l1.5-0.9l12.7-7.8V80z
	 M66.2,78.9c4.4,2.4,9.4,3.6,15.2,3.6c5.7,0,10.8-1.2,15.2-3.6c4.4-2.4,7.8-5.8,10.2-10.2c2.4-4.4,3.6-9.4,3.6-15.2V30.9
	c0-5.7-1.2-10.8-3.6-15.2c-2.4-4.4-5.8-7.8-10.2-10.2C92.2,3,87.1,1.8,81.4,1.8c-5.7,0-10.8,1.2-15.2,3.6
	c-4.4,2.4-7.8,5.8-10.2,10.2c-2.4,4.4-3.6,9.4-3.6,15.2v22.7c0,5.7,1.2,10.8,3.6,15.2C58.4,73.1,61.9,76.5,66.2,78.9z M87.7,65.4
	c-1.9,1.1-4,1.6-6.3,1.6c-2.4,0-4.5-0.6-6.3-1.6c-1.9-1.1-3.4-2.6-4.5-4.5c-1.1-1.9-1.6-4-1.6-6.3V29.7c0-2.4,0.6-4.5,1.6-6.3
	c1.1-1.9,2.6-3.4,4.5-4.5c1.9-1.1,4-1.6,6.3-1.6c2.4,0,4.5,0.6,6.3,1.6c1.9,1.1,3.4,2.6,4.5,4.5c1.1,1.9,1.6,4,1.6,6.3v24.9
	c0,2.4-0.6,4.5-1.6,6.3C91.1,62.8,89.6,64.3,87.7,65.4z"/>
</svg>
